X:3
T:Ballin' The Jack
C:Chris Smith
L:1/8
M:C
I:linebreak $
K:Bb
"G7" d2 =B2 GA z G |"Dm" d2 =B2"G7" G4 |"C7" G2 A2 B2 c2 |"Gm" B2 AG"C7" z4 Ox/||$
"F7" F2 G2 A2 GF |"Cm" c2 AF"F7" z2 d^c |"Bb" d^c d2"D7" =c=B c2 |
"Gm" BA B2"D7""_D.C. al Coda" A4 ||$Ox/"Gb7" _dB z _d B2 _dB |"Bb7" d2"A7" c2"Ab7" B4 "G7" x4|
"Eb6" c2"G7" d2"Cm" e2 c^c |"F7" d_dcB"Bb6" z4 |]

